ui/StatusQ/src/assets/img/icons/favourite.svg

<svg fill="none" height="24" viewBox="0 0 24 24" width="24" xmlns="http://www.w3.org/2000/svg"><path clip-rule="evenodd" d="m14.7773 8.37542-2.3156-5.56744c-.1708-.41064-.7526-.41064-.9234.00001l-2.31558 5.56743-6.0105.48185c-.44333.03555-.62309.5888-.28533.87813l4.57938 3.9227-1.39908 5.8653c-.10319.4326.36744.7745.74699.5427l5.14582-3.1431 5.1458 3.1431c.3796.2318.8502-.1101.747-.5427l-1.399-5.8653 4.5793-3.9227c.3378-.28933.158-.84258-.2853-.87813zm3.0375 2.17598c.1689-.1447.079-.4213-.1426-.4391l-3.0148-.24168c-.5607-.04495-1.0491-.39981-1.2651-.91916l-1.1615-2.79252c-.0854-.20532-.3762-.20532-.4616 0l-1.1615 2.79252c-.216.51935-.70442.87421-1.26511.91916l-3.01476.24168c-.22166.0178-.31154.2944-.14266.4391l2.29693 1.9675c.42719.366.61374.9401.48323 1.4873l-.70175 2.9419c-.0516.2163.18372.3872.37349.2713l2.58103-1.5765c.4801-.2932 1.0838-.2932 1.5638 0l2.581 1.5765c.1898.1159.4251-.055.3735-.2713l-.7017-2.9419c-.1305-.5472.056-1.1213.4832-1.4873z" fill="#000" fill-rule="evenodd"/></svg>

<svg width="24" height="24" viewBox="0 0 24 24" fill="none" xmlns="http://www.w3.org/2000/svg">
<path fill-rule="evenodd" clip-rule="evenodd" d="M14.7773 8.37542L12.4617 2.80798C12.2909 2.39734 11.7091 2.39734 11.5383 2.80799L9.22272 8.37542L3.21222 8.85727C2.76889 8.89282 2.58913 9.44607 2.92689 9.7354L7.50627 13.6581L6.10719 19.5234C6.004 19.956 6.47463 20.2979 6.85418 20.0661L12 16.923L17.1458 20.0661C17.5254 20.2979 17.996 19.956 17.8928 19.5234L16.4938 13.6581L21.0731 9.7354C21.4109 9.44607 21.2311 8.89282 20.7878 8.85727L14.7773 8.37542ZM17.8148 10.5514C17.9837 10.4067 17.8938 10.1301 17.6722 10.1123L14.6574 9.87062C14.0967 9.82567 13.6083 9.47081 13.3923 8.95146L12.2308 6.15894C12.1454 5.95362 11.8546 5.95362 11.7692 6.15894L10.6077 8.95146C10.3917 9.47081 9.90328 9.82567 9.34259 9.87062L6.32783 10.1123C6.10617 10.1301 6.01629 10.4067 6.18517 10.5514L8.4821 12.5189C8.90929 12.8849 9.09584 13.459 8.96533 14.0062L8.26358 16.9481C8.21198 17.1644 8.4473 17.3353 8.63707 17.2194L11.2181 15.6429C11.6982 15.3497 12.3019 15.3497 12.7819 15.6429L15.3629 17.2194C15.5527 17.3353 15.788 17.1644 15.7364 16.9481L15.0347 14.0062C14.9042 13.459 15.0907 12.8849 15.5179 12.5189L17.8148 10.5514Z" fill="black"/>
</svg>
